X:403
T: Fang fengzheng
N: C1438
O: China,Qinghai, Dongbu)
S: I, 261]
R: Xiaodiao, Xiuhebao diao]
M: 2/4
L: 1/16
K: C
d4d2A2 | d6g2 | d4c2A2 | G6A2 |
d4d2g2 | d4c2A2 | c2A2G2D2 | G8 |
G2A2d2d2 | d2g2d4 | G2A2c4 | A2c2A2G2 |
G2F4G2 | A2c2c2E2 | D6G2 | D8 |
d3cd2g2 | d2c2A2G2 | G2F4G2 | A2c2c2E2 | D6G2 | D8

@@@ Tune index: 6404
